X: 3184
T: MISS McLEAN
Q: "Reel."
R: Reel.
%R: reel
B: James Kerr "Merry Melodies" v.3 p.21 #184
Z: 2016 John Chambers <jc:trillian.mit.edu>
M: C
L: 1/8
K: Gm
uc |\
BGDG BGdB | AFCF AFcA |\
BGDG BGdB | AFcA BGG ::\
d |\
gabg dgBg |
fgfc AFcA |\
[1 gabg dgBg | cAdc BGG :|\
[2 GABc dBfd | cAFA BGG |]

%%sep 1 1 500
%%sep 1 1 500

